X:45
%%etbk:tnset id:15,pos:3,rep:3x,ant:
%%etbk:wsite http://www.thesession.org/tunes/display/874
%%etbk:pldat 2016-04-12T15:52,2016-03-14T19:03,2016-01-16T16:18,2015-11-24T18:15,2015-09-09T17:04,2015-08-23T15:53,2015-08-13T18:49,2015-08-04T17:46,2015-07-19T15:11,2015-05-28T19:14,2015-05-27T18:47,2015-05-17T16:40,2015-04-23T18:08,2015-04-22T15:19,2015-04-21T17:16,2015-03-26T18:19,2015-03-06T17:18,2014-12-30T17:46,2014-12-16T16:19,2014-11-26T16:16,2014-05-19T18:15,2014-05-14T16:54,2014-05-11T12:20,2014-05-02T17:52,2014-04-12T15:26,2014-04-01T17:36,2014-03-14T18:15,2014-02-27T18:59,2014-02-25T19:31,2014-02-15T16:31,2014-02-10T18:22,2013-11-07T15:24,2013-10-24T18:09,2013-10-21T17:42,2013-09-12T18:15,2013-08-29T16:20,2013-08-26T18:01
T: Rathlin Island
Z: Piano Box Version by Martin Fleischmann
H: Created 2013-02-19 /  Last Modified 2013-02-19
M: 4/4
L: 1/8
R: reel
K: Ador
|:!3!e3!5!g !3!e!1!A !3!(3A!2!A!1!A | !3!e!5!ged !1!B!2!A!1!B!2!d | !3![e3A]d !3!e!1!A!2!A!1!A | !2!B!5!edB !2!B!1!AA2:||
|:!3!AAAB !1!E!2!G!4!B!2!G | !3!A2!1!AB !4!ded!2!B | !1!AAA!2!B !1!G!2!A!3!B!4!d | !5!e2dB !2!B!1!AA2:|


